X: 56
T:Le Reel Des Junes Maries
M:4/4
L:1/8
C:Trad.
R:Reel
K:D
"D"D2 FA FAde|fafd A2 f2|"A"gfed "A7"cABc|"D" dcde fedA|!
D2 FA FAde|fafd A2 f2|"A"gfed "A7"cABc|"D"d2 f2 d2 A2:|!
"D"a2 fd Adfa|"A"gecB Acef|"A" g2 ec "A7"Aceg|"D"fedf "A7"eAdf|!
"D"a2 fd Adfa|"A"gecB Acef|"A" g2 ec "A7"Aceg|"A7"fd ec "D"d2 A2:|!
"D (Counter melody)"g2 dA FAdg|"A"ecAG GAcd|"A"e2 cA "A7"GAce|"D"d2 ed "A7"cGAd|!
"D"f2 da FAdf|"A" ecAG GAcd|"A"ecA "A7"GAce|"A7"dAcG"D"A2 A2|!
